X: 113201
T: NEIL GOW'S WIFE
Q: "Strathspey."
R:  Strathspey.
%R: strathspey
B: James Kerr "Merry Melodies" v.1 p.13 s.2 #1
Z: 2017 John Chambers <jc:trillian.mit.edu>
M: C
L: 1/16
K: Gm
|: ud2 |\
vBuG3 vG3B vAF3 F3A | BG3 G3A B3A Bg3 |\
BG3 G3B AF3 F3A | BG3 A3F DG3 G2 :|\
uA2 |\
vB4 ud3uB vf3vBud3uB | F4 A3F c3F (Ac3) |
B4 d3B f3B (df3) | gg3 b3g dg3 g3b |\
fd3 d3f ec3 c3e | dB3 B3d c3B AF3 |\
GG3 BB3 cc3 d3c | B3G BAGF DG3 G2 |]

%%sep 1 1 500
%%sep 1 1 500

